src/shared/_assets/icons/beaker.svg

<svg width="19" height="19" viewBox="0 0 19 19" fill="none" xmlns="http://www.w3.org/2000/svg">
<path d="M2.12993 18.9C1.23743 18.9 0.603055 18.5019 0.226805 17.7056C-0.149445 16.9094 -0.0575701 16.17 0.50243 15.4875L6.32993 8.4V2.1H5.27993C4.98243 2.1 4.73305 1.99937 4.5318 1.79812C4.33055 1.59687 4.22993 1.3475 4.22993 1.05C4.22993 0.7525 4.33055 0.503125 4.5318 0.301875C4.73305 0.100625 4.98243 0 5.27993 0H13.6799C13.9774 0 14.2268 0.100625 14.4281 0.301875C14.6293 0.503125 14.7299 0.7525 14.7299 1.05C14.7299 1.3475 14.6293 1.59687 14.4281 1.79812C14.2268 1.99937 13.9774 2.1 13.6799 2.1H12.6299V8.4L18.4574 15.4875C19.0174 16.17 19.1093 16.9094 18.7331 17.7056C18.3568 18.5019 17.7224 18.9 16.8299 18.9H2.12993ZM2.12993 16.8H16.8299L10.5299 9.135V2.1H8.42993V9.135L2.12993 16.8Z" fill="#191F28"/>
</svg>

<svg xmlns="http://www.w3.org/2000/svg" fill="none" viewBox="0 0 19 19"><path fill="currentColor" d="M2.13 18.9q-1.34 0-1.903-1.194-.564-1.195.275-2.218L6.33 8.4V2.1H5.28q-.447 0-.748-.302a1.02 1.02 0 0 1-.302-.748q0-.447.302-.748Q4.833 0 5.28 0h8.4q.446 0 .748.302.302.301.302.748 0 .446-.302.748-.301.302-.748.302h-1.05v6.3l5.827 7.088q.84 1.023.276 2.218Q18.17 18.9 16.83 18.9zm0-2.1h14.7l-6.3-7.665V2.1h-2.1v7.035z"/></svg>
